X:43
T: So reiden de Heren, S. 10f
N: L0004
O: Luxemburg
S: Die Luxemburger Volkslieder lterer Zeit, Luxemburg 1904 posth.]
R: Kinderlied, Reigenlied, Kinderliedterno - erweitert]
M: 2/4
L: 1/16
K: A
E2 | A4A2c2 | A4A2
E2 | A2A2A2c2 | A4A2
E2 | A4A2c2 | A2A2A2
D2 | A2A2AAAc | A2A2A2
E2 | A4A2c2 | A2A2A2
E2 | A2A2A2c2 | A2A2A2

